X:1
T:The Miller O' Straloch
M:6/8
L:1/8
K:Bb
 F| F2 FF-D F| B2 B e2 d| c2 F F2 D| E3 D2 E| FGFF-D F| B3 e2 d| c2 FF-G A|\
 B3 B2 ^c|
K:D}
 d2 BB-c d| e2- d c2 A| B2 B F2 D| E3 D2 E| F2 F FDF| B2 B e2 d| cFFF-G A|\
 B3 z2||
